packages/axiom-materials/src/icon_svgs/deck.svg

<svg height="16" viewBox="0 0 16 16" width="16" xmlns="http://www.w3.org/2000/svg"><path d="m2 3h8v6h-8zm2 7h7v1h-7zm2 2h7v1h-7zm6-7v6h-1v-6zm2 2v6h-1v-6z" fill-rule="evenodd"/></svg>

<?xml version="1.0" encoding="UTF-8"?>
<svg width="16px" height="16px" viewBox="0 0 16 16" version="1.1" xmlns="http://www.w3.org/2000/svg" xmlns:xlink="http://www.w3.org/1999/xlink">
    <!-- Generator: sketchtool 43.2 (39069) - http://www.bohemiancoding.com/sketch -->
    <title>deck</title>
    <desc>Created with sketchtool.</desc>
    <defs></defs>
    <g id="Page-1" stroke="none" stroke-width="1" fill="none" fill-rule="evenodd">
        <g id="deck" fill="#000000">
            <path d="M2,3 L10,3 L10,9 L2,9 L2,3 Z M4,10 L11,10 L11,11 L4,11 L4,10 Z M6,12 L13,12 L13,13 L6,13 L6,12 Z M12,5 L12,11 L11,11 L11,5 L12,5 Z M14,7 L14,13 L13,13 L13,7 L14,7 Z" id="Mask"></path>
        </g>
    </g>
</svg>
